X:1
T:Title
%%score 1 2
L:1/8
Q:1/4=87
M:6/8
K:Bb
V:1 treble nm="Grand Piano, Soprano"
V:2 bass nm="Choir Pad, Over the Tide"
V:1
 [DB]>[DB][DB] [Ec][DB][EG] | [DF][DG][EB] [DB]3 | [Fd]>[Fc][FB] [DB][DA][DB] | %3
w: By~Pete~Fagan * * * * *|||
 [=Ed][Ec][EB] [Fc]3 | [DB]>[DB][DB] [Ec][EB][EG] | [DF][DG][EB] [DB]3 | %6
w: |||
 [Fd]>[Ec][DB] [Ec][DB][Ec] | [DB]6 | [Fd]>[F_d][F=d] [Bf][Bg][Fd] | [Ec][DB][Fc] [Fd]3 | %10
w: ||||
 [GB]>[DB][DB] [Ec][DB][Fc] | [Fd]3 [DB]3 | [DB]>[DB][DB] [Ec][EB][EG] | [DF][DG][EB] [DB]3 | %14
w: ||||
 [Fd]>[Ec][DB] [Ec][DB][Ec] | [DB]6- | [DB]3 z3 |] %17
w: |||
V:2
 [B,,F,]>[B,,F,][B,,F,] [E,G,][E,G,][E,B,] | [B,,B,][B,,B,][B,,G,] [B,,F,]3 | %2
 [B,,B,]>[C,A,][D,B,] [G,B,][G,B,][G,B,] | [C,B,][C,A,][C,G,] [F,A,]3 | %4
 [B,,F,]>[B,,F,][B,,F,] [E,G,][E,G,][E,B,] | [B,,B,][B,,B,][B,,G,] [B,,F,]3 | %6
 [B,,B,]>[F,A,][G,B,] [F,A,]F,F, | [B,,F,]6 | B,>B,B, [B,D][B,D]B, | [F,A,][G,B,][F,A,] B,3 | %10
 [G,B,]>[G,B,][G,B,] [F,A,][G,B,][F,A,] | [B,,B,]6 | [B,,F,]>[B,,F,][B,,F,] [E,G,][E,G,][E,B,] | %13
 [B,,B,][B,,B,][B,,G,] [B,,F,]3 | B,>[F,A,][G,B,] [F,A,]F,F, | [B,,F,]6- | [B,,F,]3 z3 |] %17

